temp/img/footer/behance.svg

<svg width="23" height="15" viewBox="0 0 23 15" fill="none" xmlns="http://www.w3.org/2000/svg">
<path d="M8.89939 13.6945C9.47678 13.5429 9.99217 13.31 10.4406 12.9921C10.8858 12.6771 11.2472 12.2688 11.5124 11.7652C11.7751 11.2678 11.9068 10.6762 11.9068 9.9893C11.9068 9.14179 11.7052 8.41883 11.2939 7.81468C10.8842 7.21462 10.2669 6.79264 9.43308 6.55311C10.0454 6.26332 10.5037 5.8905 10.8156 5.43575C11.1251 4.98045 11.2797 4.41071 11.2797 3.72871C11.2797 3.09834 11.1762 2.56492 10.9697 2.13912C10.7583 1.70676 10.4628 1.36372 10.0856 1.10561C9.70238 0.847781 9.24845 0.659597 8.71722 0.546796C8.18244 0.430991 7.59768 0.375 6.94982 0.375H0.5625V13.9226H7.12899C7.73588 13.9226 8.32883 13.8464 8.89939 13.6945ZM3.54558 2.68264H6.33638C6.60022 2.68264 6.85778 2.70149 7.10359 2.74956C7.35378 2.79244 7.56927 2.87219 7.76019 2.98745C7.95247 3.09807 8.10487 3.25648 8.21986 3.45859C8.33102 3.6607 8.38619 3.92127 8.38619 4.23645C8.38619 4.80428 8.21986 5.21807 7.87681 5.46852C7.53021 5.72308 7.09239 5.84844 6.56417 5.84844H3.54558V2.68264ZM3.54558 11.6152V7.8846H6.7884C7.43052 7.8846 7.95247 8.03236 8.34386 8.32925C8.7347 8.63023 8.93108 9.12595 8.93108 9.82434C8.93108 10.1805 8.87345 10.4755 8.75273 10.7024C8.63282 10.9313 8.46758 11.1116 8.26793 11.243C8.06855 11.3795 7.83202 11.4721 7.56517 11.5303C7.30243 11.589 7.02302 11.6152 6.72859 11.6152H3.54558Z" fill="#B4EC50"/>
<path d="M14.1347 12.7505C14.5733 13.2061 15.0947 13.5559 15.7188 13.8053C16.3432 14.0517 17.0385 14.1768 17.8112 14.1768C18.9198 14.1768 19.8714 13.9227 20.6517 13.4131C21.4408 12.9056 22.0195 12.0628 22.4008 10.8818H20.0282C19.9361 11.1855 19.6985 11.478 19.3082 11.7514C18.9144 12.0253 18.4446 12.1627 17.9011 12.1627C17.1456 12.1627 16.5622 11.9644 16.1588 11.5703C15.754 11.1762 15.4918 10.442 15.4918 9.66663H22.5702C22.621 8.9057 22.5592 8.17864 22.3828 7.48271C22.205 6.7857 21.9207 6.16434 21.5208 5.62081C21.121 5.07675 20.6118 4.64166 19.991 4.32101C19.368 3.99572 18.641 3.83594 17.8112 3.83594C17.0596 3.83594 16.3809 3.9695 15.7655 4.23525C15.1502 4.50155 14.6217 4.86644 14.1759 5.32912C13.7313 5.78906 13.3934 6.33722 13.1487 6.97279C12.9089 7.60617 12.7863 8.29117 12.7863 9.02478C12.7863 9.78325 12.9045 10.4833 13.1386 11.1158C13.3751 11.7517 13.7072 12.2927 14.1347 12.7505ZM15.6147 7.32212C15.6836 7.07712 15.8021 6.84824 15.9761 6.63111C16.1509 6.41752 16.3795 6.23617 16.6581 6.09059C16.9435 5.94283 17.2997 5.87045 17.7301 5.87045C18.3919 5.87045 18.9346 6.06219 19.2544 6.41643C19.5759 6.77368 19.811 7.28142 19.8755 7.9686H15.4916C15.5041 7.77714 15.5454 7.56055 15.6147 7.32212V7.32212Z" fill="#B4EC50"/>
<path d="M14.9407 1.28418H20.4322V2.62113H14.9407V1.28418Z" fill="#B4EC50"/>
</svg>

<svg width="23" height="15" viewBox="0 0 23 15" fill="none" xmlns="http://www.w3.org/2000/svg"><path d="M8.9 13.694a4.705 4.705 0 0 0 1.54-.702 3.456 3.456 0 0 0 1.072-1.227c.263-.497.395-1.089.395-1.776 0-.847-.202-1.57-.613-2.174-.41-.6-1.027-1.022-1.86-1.262.611-.29 1.07-.662 1.382-1.117.31-.456.464-1.025.464-1.707 0-.63-.104-1.164-.31-1.59a2.621 2.621 0 0 0-.884-1.033 3.858 3.858 0 0 0-1.369-.56A8.337 8.337 0 0 0 6.95.376H.562v13.548H7.13c.607 0 1.2-.077 1.77-.229zM3.545 2.684h2.79c.264 0 .522.018.768.067.25.042.465.122.656.237.192.111.345.27.46.472.111.202.166.462.166.777 0 .568-.166.982-.51 1.233-.346.254-.784.38-1.312.38H3.546V2.682zm0 8.932v-3.73h3.242c.643 0 1.164.147 1.556.444.39.301.587.797.587 1.495 0 .357-.058.652-.178.878-.12.23-.285.41-.485.541-.2.136-.436.23-.703.287a3.836 3.836 0 0 1-.836.085H3.546zm10.59 1.134c.438.456.96.806 1.584 1.055.624.247 1.32.372 2.092.372 1.109 0 2.06-.254 2.84-.764.79-.507 1.369-1.35 1.75-2.531h-2.373c-.092.303-.33.596-.72.87-.394.273-.863.41-1.407.41-.755 0-1.339-.198-1.742-.592-.405-.394-.667-1.128-.667-1.903h7.078a6.947 6.947 0 0 0-.187-2.184 5.323 5.323 0 0 0-.862-1.862 4.35 4.35 0 0 0-1.53-1.3c-.623-.325-1.35-.485-2.18-.485-.751 0-1.43.134-2.046.4a4.86 4.86 0 0 0-1.59 1.093 4.817 4.817 0 0 0-1.026 1.644 5.753 5.753 0 0 0-.363 2.052c0 .758.119 1.458.353 2.09.236.637.568 1.178.996 1.636zm1.48-5.428a1.93 1.93 0 0 1 .361-.69c.175-.214.403-.396.682-.541.285-.148.642-.22 1.072-.22.662 0 1.205.191 1.524.545.322.358.557.865.621 1.553h-4.383c.012-.192.053-.408.123-.647zm-.675-6.038h5.492v1.337h-5.491V1.284z" fill="#B4EC50"/></svg>
